X:109 
T:Lass of Ballintra 2 (reel), The
F:file ID: cre.5/109lass_b2
N:This seems to be pretty much the same tune
as "Flags of Dublin".
B:CRE5.192 (CailÃÂÃÂÃÂÃÂ­n Bhaile an TrÃÂÃÂÃÂÃÂ¡ 2)
M:4/4
Q:180
R:reel
K:D
B|ADFA BddB|ADFD EB,B,/A,/B,|ADFA Bcde|fdBc d3:|
A|dcdf eAce|dfed cABc|defd eAce|fdBc d2dA|
dcdf eAce|dfed cAA/G/A|BGFE FDFA|Bdce Hd4|]

%%%

